!!!!SEGMENT:43Sanjusangendou_c.krn
!!!OTL: 三十三間堂
!!!OPR:Eiga Banso Kyokusyu,jidai-geki,zenpen
!!!YOY:1929
!!!ONB:Mokuzou
**kern
*clefG2
*C:
*M4/4
*met(c)
=1
4ee
8ddL
8eeJ
4e
8ff#L
8ff#J
=2
4ff#
4ff#
2ee
=3
4ee
8ddL
8eeJ
4e
8ff#L
8ff#J
=4
4ff#
4ff#
4ee
4aa
=5
4ff#
8.aaL
16aaJk
8ff#L
8aaJ
8ff#L
8eeJ
=6
8ddL
8ee
8dd
8eeJ
4ff#
8ddL
8eeJ
=7
4b
8ff#L
8ddJ
8eeL
(16eeL
16ddJJ
4b)
=8
4a
8aL
8aJ
4e
4g
=9
4a
8aL
8aJ
4e
4g
=10
4a
8aL
8aJ
4e
4g
=11
4a
8aL
8aJ
4e
4g
=12
4a
8aL
8aJ
4b
4a
=13
2g
2a
=14
4b
4dd
4ee
4b
=15
4a
8bL
8bJ
4a
4fn
=16
4e
4a
4fn
4e
=17
2fn
4r
8fL
8eJ
=18
2fn
4r
4a
=19
4b
4a
4fn
4e
=20
2g
2a
=21
4b
4dd
4ee
4b
=22
4a
8bL
8bJ
4a
4fn
=23
4e
4r
4ee
8ddL
8eeJ
=24
4e
8ff#L
8ff#J
4ff#
4ff#
=25
[2ee
4ee]
8ddL
8eeJ
=26
4e
8ff#L
8ff#J
4ff#
4ff#
=27
4ee
4aa
4ff#
8.aaL
16aaJk
=28
8ff#L
8aa
8ff#
8eeJ
8ddL
8ee
8dd
8eeJ
=29
4ff#
8ddL
8eeJ
4b
8ff#L
8ddJ
=30
8eeL
16eeL
16ddJJ
8bL
8ddJ
4a
8aL
8aJ
=31
4e
4g
4a
8aL
8aJ
=32
4e
4g
4a
8aL
8aJ
=33
4e
4g
4a
8aL
8aJ
=34
4b
4a
2g
=35
2a
4b
4dd
=36
4ee
4b
4a
8bL
8bJ
=37
4a
4fn
4e
4r
=38
4g
4a
4e
8bL
8bJ
=39
4b
4a
4e
8bL
8bJ
=40
4b
4a
[2b
=41
4b]
4dd
4b
4a
=42
4b
4g
2a
=43
2a
2a
==
*-
!!!ENC: Yukiko Yoden
!!!END: 2023/06/11
